src/assets/icons/blondie.svg

<svg width="106" height="115" viewBox="0 0 106 115" fill="none" xmlns="http://www.w3.org/2000/svg">
<g clip-path="url(#clip0_238_49)">
<path d="M88.3841 12.512C85.562 13.1947 82.9842 14.9461 81.5189 17.202L80.6506 18.5081L75.5764 18.7159C72.7815 18.8346 69.7966 19.0424 68.9283 19.1612L67.3816 19.3689L66.8118 18.1222C64.451 12.7495 55.8764 10.9982 51.182 14.9164C50.0695 15.8366 48.9298 18.3003 48.9298 19.8142V20.8828L46.4334 21.0906C45.0495 21.1796 42.0918 21.5359 39.8668 21.8624C37.6688 22.1889 35.3895 22.456 34.8197 22.456H33.7885L34.0056 21.3578C35.0639 16.3412 29.2841 11.8887 23.0702 12.9573C18.7558 13.6697 15.5538 16.8458 15.5538 20.3782C15.5538 20.8828 15.4453 21.0015 15.0925 20.8531C13.8443 20.3188 8.22739 19.4877 5.37822 19.4283L2.20343 19.3393L1.55219 20.1704L0.900947 21.0015V50.0025C0.900947 82.0312 0.846677 80.9329 2.61045 84.1684C4.23855 87.1367 7.35907 89.4521 10.6424 90.1348C12.6233 90.5504 93.3226 90.5504 95.3578 90.1348C98.7225 89.4521 101.843 87.0774 103.553 83.8715C105.126 80.9329 105.099 81.5265 105.099 51.3086V23.6137L104.421 22.9013C103.878 22.2779 103.525 22.1592 102.033 22.1592C101.083 22.1592 99.5366 22.0702 98.614 21.9811C97.2029 21.803 96.9587 21.6843 97.1215 21.2984C97.2029 21.0312 97.3386 20.022 97.42 19.0127C97.5828 16.9943 97.0673 15.5101 95.6834 14.0853C94.1096 12.4527 91.2333 11.8293 88.3841 12.512ZM92.6443 17.4395C93.2955 17.8254 93.3226 19.2205 92.6714 20.0814L92.183 20.7641L89.6052 20.111C88.1941 19.7548 86.7831 19.3986 86.4304 19.3096C85.6434 19.1315 85.8605 18.7456 87.2715 17.9441C89.3067 16.8162 91.2875 16.638 92.6443 17.4395ZM27.9545 18.3003C30.1524 19.3689 30.3695 20.9125 28.4972 22.1592C27.5746 22.7826 25.4038 22.9013 22.6903 22.4857C21.1708 22.2483 19.8954 21.2687 19.8954 20.3485C19.8954 19.5767 21.6592 18.0629 22.7989 17.8551C23.3687 17.7363 23.9657 17.6176 24.1013 17.5582C24.6169 17.3208 26.8148 17.766 27.9545 18.3003ZM59.7296 17.8551C60.4893 18.1222 61.4933 18.6565 61.9546 19.1018C62.7144 19.7845 62.7687 19.9033 62.3616 20.1704C62.0903 20.3188 59.9738 20.4672 57.6402 20.4969C53.7599 20.5266 53.4071 20.4969 53.3257 19.9923C53.19 19.1908 54.0041 18.33 55.4151 17.8551C57.0703 17.3208 58.0472 17.3208 59.7296 17.8551ZM83.0656 23.6434C84.5038 23.8215 87.4072 24.4152 89.4966 24.9495C93.4583 25.9884 95.8462 26.4633 98.9396 26.7602L100.758 26.968V30.2035V33.439H53.0001H5.24254V28.8084V24.148L7.63042 24.3261C10.0726 24.5339 11.5379 24.8307 16.7749 26.1665C18.4301 26.6118 21.0351 27.0867 22.6089 27.2648C26.5164 27.6804 35.4709 27.3539 40.111 26.6118C42.2546 26.2852 46.8404 25.8994 50.6936 25.7212C59.5667 25.365 61.3848 25.2166 65.6178 24.5042C72.3202 23.3762 78.2356 23.0794 83.0656 23.6434ZM100.758 58.6701C100.758 78.291 100.73 78.8847 100.188 80.4579C99.5637 82.328 97.5828 84.4949 95.9276 85.1479C94.4352 85.7119 11.565 85.7119 10.0726 85.1479C8.41733 84.4949 6.43648 82.328 5.81238 80.4579C5.26968 78.8847 5.24254 78.291 5.24254 58.6701V38.4852H53.0001H100.758V58.6701Z" fill="#5F4A33"/>
<path d="M53.5424 49.3197C50.4761 50.6851 47.8712 51.8725 47.7355 51.9319C47.4642 52.0209 48.8752 56.2953 49.1737 56.2953C49.445 56.2953 60.4347 51.4866 60.6789 51.2491C60.896 51.0413 59.5121 46.7669 59.2407 46.8263C59.1593 46.8263 56.6086 47.9542 53.5424 49.3197Z" fill="#5F4A33"/>
<path d="M17.29 51.576C16.6117 52.5556 16.1504 53.4758 16.2589 53.5945C17.1001 54.4256 25.3491 61.0451 25.5119 61.0451C25.9189 61.0154 28.1169 57.4534 27.8727 57.2159C27.3028 56.6519 18.8096 49.7653 18.701 49.7653C18.6196 49.7653 17.9955 50.5668 17.29 51.576Z" fill="#5F4A33"/>
<path d="M79.5377 50.8632C79.1578 51.4866 78.6694 52.3474 78.4252 52.763L77.9639 53.5348L81.5186 56.1172C83.4723 57.5421 85.1004 58.67 85.1275 58.6107C85.6974 57.8092 87.4883 54.7518 87.4069 54.6924C86.7556 54.0988 80.6231 49.7649 80.4603 49.7649C80.3246 49.7649 79.9176 50.2696 79.5377 50.8632Z" fill="#5F4A33"/>
<path d="M40.9792 62.6773L37.533 65.2301L38.6456 67.0705C39.2697 68.0797 39.8395 68.9702 39.8938 69.0296C39.9209 69.089 41.5762 67.9907 43.5299 66.5658L47.0574 63.9537L46.5961 63.1819C45.1308 60.6885 44.7781 60.1542 44.6153 60.1542C44.5339 60.1542 42.8786 61.2822 40.9792 62.6773Z" fill="#5F4A33"/>
<path d="M72.8084 65.6457L70.5291 68.1688L71.9943 69.8014L73.4596 71.4341L75.8475 68.8516L78.2354 66.2691L76.8244 64.6959C76.0375 63.835 75.3319 63.1226 75.2505 63.1226C75.1691 63.1226 74.0837 64.2506 72.8084 65.6457Z" fill="#5F4A33"/>
<path d="M60.1365 67.2193L58.2099 68.3176L59.4039 70.9298L60.5978 73.5123L62.4973 72.4733C63.5555 71.9094 64.3967 71.3157 64.3696 71.1969C64.3696 71.0782 63.854 69.8909 63.2299 68.5551L62.0902 66.1507L60.1365 67.2193Z" fill="#5F4A33"/>
</g>
<defs>
<clipPath id="clip0_238_49">
<rect width="104.198" height="113.986" fill="white" transform="translate(0.900764 0.840576)"/>
</clipPath>
</defs>
</svg>

<svg width="106" height="115" fill="none" xmlns="http://www.w3.org/2000/svg"><g clip-path="url(#a)" fill="#5F4A33"><path d="M88.384 12.512c-2.822.683-5.4 2.434-6.865 4.69l-.868 1.306-5.075.208c-2.794.119-5.78.326-6.648.445l-1.546.208-.57-1.247c-2.361-5.373-10.936-7.124-15.63-3.206-1.113.92-2.252 3.384-2.252 4.898v1.069l-2.497.208c-1.383.089-4.341.445-6.566.771-2.198.327-4.477.594-5.047.594h-1.032l.218-1.098c1.058-5.017-4.722-9.47-10.936-8.4-4.314.712-7.516 3.888-7.516 7.42 0 .505-.109.623-.462.475-1.248-.534-6.865-1.365-9.714-1.425l-3.175-.089-.65.831-.652.831v29.001c0 32.03-.054 30.93 1.71 34.166 1.628 2.969 4.748 5.284 8.031 5.967 1.981.415 82.68.415 84.716 0 3.364-.683 6.485-3.058 8.195-6.264 1.573-2.938 1.546-2.344 1.546-32.562V23.614l-.678-.713c-.543-.623-.896-.742-2.388-.742-.95 0-2.496-.089-3.419-.178-1.411-.178-1.655-.297-1.493-.683.082-.267.218-1.276.299-2.285.163-2.019-.353-3.503-1.737-4.928-1.573-1.632-4.45-2.256-7.299-1.573zm4.26 4.927c.651.386.679 1.782.027 2.642l-.488.683-2.578-.653-3.175-.801c-.787-.178-.57-.564.841-1.366 2.036-1.128 4.016-1.306 5.373-.505zm-64.69.861c2.198 1.069 2.415 2.613.543 3.86-.922.623-3.093.741-5.807.326-1.52-.238-2.795-1.217-2.795-2.137 0-.772 1.764-2.286 2.904-2.494.57-.119 1.167-.237 1.302-.297.516-.237 2.714.208 3.854.742zm31.776-.445c.76.267 1.763.802 2.225 1.247.76.683.814.801.407 1.068-.272.149-2.388.297-4.722.327-3.88.03-4.233 0-4.314-.505-.136-.801.678-1.662 2.09-2.137 1.654-.534 2.631-.534 4.314 0zm23.336 5.788c1.438.178 4.341.772 6.43 1.306 3.962 1.04 6.35 1.514 9.444 1.811l1.818.208v6.471H5.243v-9.291l2.387.178c2.443.208 3.908.505 9.145 1.84 1.655.446 4.26.92 5.834 1.099 3.907.415 12.862.089 17.502-.653 2.144-.327 6.73-.713 10.583-.89 8.873-.357 10.69-.505 14.924-1.218 6.702-1.128 12.618-1.425 17.448-.86zm17.692 35.027c0 19.621-.028 20.215-.57 21.788-.624 1.87-2.605 4.037-4.26 4.69-1.493.564-84.363.564-85.855 0-1.656-.653-3.637-2.82-4.26-4.69-.543-1.573-.57-2.167-.57-21.788V38.485h95.515V58.67z"/><path d="M53.542 49.32c-3.066 1.365-5.67 2.553-5.806 2.612-.272.089 1.14 4.363 1.438 4.363.271 0 11.26-4.808 11.505-5.046.217-.208-1.167-4.482-1.438-4.423-.082 0-2.632 1.128-5.699 2.494zM17.29 51.576c-.678.98-1.14 1.9-1.031 2.018.841.832 9.09 7.451 9.253 7.451.407-.03 2.605-3.592 2.36-3.83-.57-.563-9.062-7.45-9.171-7.45-.081 0-.706.802-1.411 1.811zM79.538 50.863c-.38.624-.869 1.484-1.113 1.9l-.461.772 3.555 2.582c1.953 1.425 3.581 2.553 3.608 2.494.57-.802 2.361-3.86 2.28-3.919-.651-.593-6.784-4.927-6.947-4.927-.135 0-.542.505-.922 1.098zM40.98 62.677l-3.447 2.553 1.113 1.84c.624 1.01 1.194 1.9 1.248 1.96.027.059 1.682-1.04 3.636-2.464l3.527-2.612-.46-.772c-1.466-2.494-1.819-3.028-1.982-3.028-.081 0-1.736 1.128-3.636 2.523zM72.808 65.646l-2.279 2.523 1.465 1.632 1.466 1.633 2.388-2.582 2.387-2.583-1.41-1.573c-.788-.861-1.493-1.573-1.575-1.573-.08 0-1.166 1.128-2.442 2.523zM60.136 67.22l-1.926 1.098 1.194 2.612 1.194 2.582 1.9-1.039c1.058-.564 1.899-1.157 1.872-1.276 0-.119-.516-1.306-1.14-2.642l-1.14-2.404-1.954 1.068z"/></g><defs><clipPath id="a"><path fill="#fff" transform="translate(.9 .84)" d="M0 0h104.198v113.986H0z"/></clipPath></defs></svg>
